gui/assets/filter.svg

<svg width="800px" height="800px" viewBox="0 0 24 24" fill="none" xmlns="http://www.w3.org/2000/svg">
  <g id="Interface / Filter">
    <path id="Vector"
      d="M20 5.6001C20 5.04005 19.9996 4.75981 19.8906 4.5459C19.7948 4.35774 19.6423 4.20487 19.4542 4.10899C19.2403 4 18.9597 4 18.3996 4H5.59961C5.03956 4 4.75981 4 4.5459 4.10899C4.35774 4.20487 4.20487 4.35774 4.10899 4.5459C4 4.75981 4 5.04005 4 5.6001V6.33736C4 6.58195 4 6.70433 4.02763 6.81942C4.05213 6.92146 4.09263 7.01893 4.14746 7.1084C4.20928 7.20928 4.29591 7.29591 4.46875 7.46875L9.53149 12.5315C9.70443 12.7044 9.79044 12.7904 9.85228 12.8914C9.90711 12.9808 9.94816 13.0786 9.97266 13.1807C10 13.2946 10 13.4155 10 13.6552V18.411C10 19.2682 10 19.6971 10.1805 19.9552C10.3382 20.1806 10.5814 20.331 10.8535 20.3712C11.1651 20.4172 11.5487 20.2257 12.3154 19.8424L13.1154 19.4424C13.4365 19.2819 13.5966 19.2013 13.7139 19.0815C13.8176 18.9756 13.897 18.8485 13.9453 18.7084C14 18.5499 14 18.37 14 18.011V13.6626C14 13.418 14 13.2958 14.0276 13.1807C14.0521 13.0786 14.0926 12.9808 14.1475 12.8914C14.2089 12.7911 14.2947 12.7053 14.4653 12.5347L14.4688 12.5315L19.5315 7.46875C19.7044 7.2958 19.7904 7.20932 19.8523 7.1084C19.9071 7.01893 19.9482 6.92146 19.9727 6.81942C20 6.70551 20 6.58444 20 6.3448V5.6001Z"
      stroke="white" stroke-width="2" stroke-linecap="round" stroke-linejoin="round" />
  </g>
</svg>

<svg width="800" height="800" viewBox="0 0 24 24" fill="none" xmlns="http://www.w3.org/2000/svg">
  <path
    d="M20 5.6c0-.56 0-.84-.11-1.054a.998.998 0 0 0-.436-.437C19.24 4 18.96 4 18.4 4H5.6c-.56 0-.84 0-1.054.109a1 1 0 0 0-.437.437C4 4.76 4 5.04 4 5.6v.737c0 .245 0 .367.028.482a1 1 0 0 0 .12.29c.061.1.148.187.32.36l5.063 5.062c.173.173.26.26.321.36.055.09.096.188.12.29.028.114.028.235.028.474v4.756c0 .857 0 1.286.18 1.544a1 1 0 0 0 .674.416c.311.046.695-.145 1.461-.529l.8-.4c.322-.16.482-.24.599-.36a1 1 0 0 0 .231-.374c.055-.158.055-.338.055-.697v-4.348c0-.245 0-.367.028-.482a.998.998 0 0 1 .12-.29c.06-.1.147-.186.317-.356l.004-.004 5.063-5.062c.172-.173.258-.26.32-.36.055-.09.096-.188.12-.29.028-.113.028-.235.028-.474V5.6z"
    stroke="#fff" stroke-width="2" stroke-linecap="round" stroke-linejoin="round" />
</svg>
